X:5602
T:G\aa{}ngl\aa{}t
R:G\aa{}ngl\aa{}t
O:Sweden
M:4/4
D:Bj\"orn St\aa{}bi / Hj\"ort Anders record (Nonesuch)
A:Dalarna
K:D
g|\
fecA d3e | fede f2d2 | fecA d3e | fede f2d2 |\
efga b2ag | f2ed cAce | d6-d :|*
|: f | \
f2df a4 | f2ed e2eg | f2ed c2Ac | B2BG B2BG | \
B2A2 A3f | f2df a4 | f2ed e2eg | f2ed c2Ac | \
B2BG B2BG | B2A2 A3c | e2gf d4 :|**
